icons/fill-new-arrow-chevron-left-circle.svg

<svg xmlns="http://www.w3.org/2000/svg" width="32px" height="32px" viewBox="0 0 32 32" version="1.1">
    <title>fill-new-arrow-chevron-left-circle</title>
    <g id="fill-new-arrow-chevron-left-circle" stroke-width="1" fill-rule="evenodd">
        <path d="M16,2 C23.7319865,2 30,8.2680135 30,16 C30,23.7319865 23.7319865,30 16,30 C8.2680135,30 2,23.7319865 2,16 C2,8.2680135 8.2680135,2 16,2 Z M18.7071068,10.2928932 C18.3165825,9.90236893 17.6834175,9.90236893 17.2928932,10.2928932 L12.2928932,15.2928932 C11.9023689,15.6834175 11.9023689,16.3165825 12.2928932,16.7071068 L17.2928932,21.7071068 C17.6834175,22.0976311 18.3165825,22.0976311 18.7071068,21.7071068 L18.7902954,21.6128994 C19.0953203,21.2206082 19.0675907,20.6533772 18.7071068,20.2928932 L14.415,16 L18.7071068,11.7071068 C19.0976311,11.3165825 19.0976311,10.6834175 18.7071068,10.2928932 Z" id="&#24418;&#29366;" />
    </g>
</svg>

<svg xmlns="http://www.w3.org/2000/svg" viewBox="0 0 32 32"><path fill="currentColor" d="M16 2c7.732 0 14 6.268 14 14s-6.268 14-14 14S2 23.732 2 16 8.268 2 16 2m2.707 8.293a1 1 0 0 0-1.414 0l-5 5a1 1 0 0 0 0 1.414l5 5a1 1 0 0 0 1.414 0l.083-.094a1 1 0 0 0-.083-1.32L14.415 16l4.292-4.293a1 1 0 0 0 0-1.414"/></svg>
